Catalina-light/actions/16/keyframe-disable.svg

<svg version="1.1" viewBox="0 0 16 16" xmlns="http://www.w3.org/2000/svg">
    <defs>
        <style id="current-color-scheme" type="text/css">.ColorScheme-Text {
        color:#363636;
      }</style>
    </defs>
    <path style="fill:currentColor;fill-opacity:1;stroke:none" class="ColorScheme-Text" d="M 13.292969,2 2,13.267578 2.7070312,14 14,2.7070312 Z M 5,3 V 4 H 7 V 5.0507812 C 4.7620407,5.3045267 3,7.1975144 3,9.5 3,9.9102928 3.0734186,10.301196 3.1777344,10.679688 3.4628967,10.395187 3.7480459,10.110676 4.0332031,9.8261719 4.0229517,9.7170535 4,9.6117994 4,9.5 4,7.5670034 5.5670034,6 7.5,6 7.6144503,6 7.7223495,6.0224656 7.8339844,6.0332031 8.1168502,5.750964 8.4007276,5.4697388 8.6835938,5.1875 8.4612839,5.1258676 8.2345522,5.0773754 8,5.0507812 V 4 H 9.8730469 C 9.9154118,3.9577296 9.957635,3.9153172 10,3.8730469 V 3 Z m 6.162109,3.9589844 c -0.232764,0.23273 -0.4645,0.4664894 -0.697265,0.6992187 C 10.798571,8.1943178 11,8.8220128 11,9.5 11,11.432997 9.432997,13 7.5,13 6.8220128,13 6.1943178,12.798571 5.6582031,12.464844 5.4180072,12.705117 5.177678,12.945256 4.9375,13.185547 5.6667387,13.695257 6.5486654,14 7.5,14 9.973437,14 12,11.973437 12,9.5 12,8.5476656 11.676037,7.6824723 11.162109,6.9589844 Z"/>
</svg>

<svg version="1.1" viewBox="0 0 16 16" xmlns="http://www.w3.org/2000/svg">
<defs>
<style id="current-color-scheme" type="text/css">.ColorScheme-Text {
        color:#363636;
      }</style>
</defs>
<path class="ColorScheme-Text" d="m13.293 2-11.293 11.268 0.70703 0.73242 11.293-11.293zm-8.293 1v1h2v1.0508c-2.238 0.25375-4 2.1467-4 4.4492 0 0.41029 0.073419 0.8012 0.17773 1.1797 0.28516-0.2845 0.57031-0.56901 0.85547-0.85352-0.010251-0.10912-0.033203-0.21437-0.033203-0.32617 0-1.933 1.567-3.5 3.5-3.5 0.11445 0 0.22235 0.022466 0.33398 0.033203 0.28287-0.28224 0.56674-0.56346 0.84961-0.8457-0.22231-0.061632-0.44904-0.11012-0.68359-0.13672v-1.0508h1.873c0.042365-0.04227 0.084588-0.084683 0.12695-0.12695v-0.87305zm6.1621 3.959c-0.23276 0.23273-0.4645 0.46649-0.69726 0.69922 0.33373 0.53611 0.53516 1.1638 0.53516 1.8418 0 1.933-1.567 3.5-3.5 3.5-0.67799 0-1.3057-0.20143-1.8418-0.53516-0.2402 0.24027-0.48053 0.48041-0.7207 0.7207 0.72924 0.50971 1.6112 0.81445 2.5625 0.81445 2.4734 0 4.5-2.0266 4.5-4.5 0-0.95233-0.32396-1.8175-0.83789-2.541z" fill="#363636"/>
</svg>
